X:1     %Music
T:Marianina
B:Singing Together, Summer 1968, BBC Publications
F:http://www.folkinfo.org/songs
M:4/4     %Meter
L:1/8     %
K:Eb
B3 G cc BB |A3 F D2 z2 |c3 A dd cc |B3 G E2 z2 |
w:O'er the o-cean flies a mer-ry fay, Soft her wings are as a cloud of day, 
B3 G cc BB |A3 F D2 z2 
w:As she pass-es all the blue waves say: 
|c3 A dd cc |B2 BB cc BB | A2 AA BB AA |G4
w:"Ma-ria-ni-na, do not roam, Whi-ther, whi-ther is your home, Come and turn us in-to foam,
 e3 d |d c3 d3 c |c B3  B3 =B | d3 c BB AF |E4 z4 |]
w:  Ma-ria-ni-na, Ma-ria-ni-na,  Come, O come and turn us in-to foam!"

